packages/calcite-ui-icons/icons/editing-trim-to-length-24.svg

<?xml version="1.0" encoding="UTF-8"?><svg id="icons" xmlns="http://www.w3.org/2000/svg" viewBox="0 0 24 24"><defs><style>.cls-1{fill:none;}</style></defs><path d="M10,13.43445l-6.56641,6.56555H1v3h3v-2.43359l6.56628-6.56641h2.43274v-3h-2.99902v2.43445ZM3,22h-1v-1h1v1ZM11,12h1v1h-1v-1ZM18,5h1v1h-1v-1ZM16,7h1v1h-1v-1ZM14,9h1v1h-1v-1ZM20,1v3h3V1h-3ZM22,3h-1v-1h1v1Z"/><rect class="cls-1" width="24" height="24"/></svg>

<svg xmlns="http://www.w3.org/2000/svg" viewBox="0 0 24 24"><path d="M10 13.434L3.434 20H1v3h3v-2.434L10.566 14H13v-3h-3v2.434zM3 22H2v-1h1v1zm8-10h1v1h-1v-1zm7-7h1v1h-1V5zm-2 2h1v1h-1V7zm-2 2h1v1h-1V9zm6-8v3h3V1h-3zm2 2h-1V2h1v1z"/><path fill="none" d="M0 0h24v24H0z"/></svg>
